img/logo.svg

<svg width="104" height="29" viewBox="0 0 104 29" fill="none" xmlns="http://www.w3.org/2000/svg">
<path d="M13.336 15.076C14.248 15.22 15.076 15.592 15.82 16.192C16.588 16.792 17.188 17.536 17.62 18.424C18.076 19.312 18.304 20.26 18.304 21.268C18.304 22.54 17.98 23.692 17.332 24.724C16.684 25.732 15.736 26.536 14.488 27.136C13.264 27.712 11.812 28 10.132 28H0.772V2.908H9.772C11.476 2.908 12.928 3.196 14.128 3.772C15.328 4.324 16.228 5.08 16.828 6.04C17.428 7 17.728 8.08 17.728 9.28C17.728 10.768 17.32 12.004 16.504 12.988C15.712 13.948 14.656 14.644 13.336 15.076ZM4.048 13.744H9.556C11.092 13.744 12.28 13.384 13.12 12.664C13.96 11.944 14.38 10.948 14.38 9.676C14.38 8.404 13.96 7.408 13.12 6.688C12.28 5.968 11.068 5.608 9.484 5.608H4.048V13.744ZM9.844 25.3C11.476 25.3 12.748 24.916 13.66 24.148C14.572 23.38 15.028 22.312 15.028 20.944C15.028 19.552 14.548 18.46 13.588 17.668C12.628 16.852 11.344 16.444 9.736 16.444H4.048V25.3H9.844ZM26.1261 11.476C26.7021 10.348 27.5181 9.472 28.5741 8.848C29.6541 8.224 30.9621 7.912 32.4981 7.912V11.296H31.6341C27.9621 11.296 26.1261 13.288 26.1261 17.272V28H22.8501V8.272H26.1261V11.476ZM37.9718 5.068C37.3478 5.068 36.8198 4.852 36.3878 4.42C35.9558 3.988 35.7398 3.46 35.7398 2.836C35.7398 2.212 35.9558 1.684 36.3878 1.252C36.8198 0.819999 37.3478 0.603999 37.9718 0.603999C38.5718 0.603999 39.0758 0.819999 39.4838 1.252C39.9158 1.684 40.1318 2.212 40.1318 2.836C40.1318 3.46 39.9158 3.988 39.4838 4.42C39.0758 4.852 38.5718 5.068 37.9718 5.068ZM39.5558 8.272V28H36.2798V8.272H39.5558ZM49.1352 10.972V22.6C49.1352 23.56 49.3392 24.244 49.7472 24.652C50.1552 25.036 50.8632 25.228 51.8712 25.228H54.2832V28H51.3312C49.5072 28 48.1392 27.58 47.2272 26.74C46.3152 25.9 45.8592 24.52 45.8592 22.6V10.972H43.3032V8.272H45.8592V3.304H49.1352V8.272H54.2832V10.972H49.1352Z" fill="black"/>
<path d="M61.5285 1.36V28H58.2525V1.36H61.5285ZM85.1118 17.38C85.1118 18.004 85.0758 18.664 85.0038 19.36H69.2358C69.3558 21.304 70.0158 22.828 71.2158 23.932C72.4398 25.012 73.9158 25.552 75.6438 25.552C77.0598 25.552 78.2358 25.228 79.1718 24.58C80.1318 23.908 80.8038 23.02 81.1878 21.916H84.7158C84.1878 23.812 83.1318 25.36 81.5478 26.56C79.9638 27.736 77.9958 28.324 75.6438 28.324C73.7718 28.324 72.0918 27.904 70.6038 27.064C69.1398 26.224 67.9878 25.036 67.1478 23.5C66.3078 21.94 65.8878 20.14 65.8878 18.1C65.8878 16.06 66.2958 14.272 67.1118 12.736C67.9278 11.2 69.0678 10.024 70.5318 9.208C72.0198 8.368 73.7238 7.948 75.6438 7.948C77.5158 7.948 79.1718 8.356 80.6118 9.172C82.0518 9.988 83.1558 11.116 83.9238 12.556C84.7158 13.972 85.1118 15.58 85.1118 17.38ZM81.7278 16.696C81.7278 15.448 81.4518 14.38 80.8998 13.492C80.3478 12.58 79.5918 11.896 78.6318 11.44C77.6958 10.96 76.6518 10.72 75.4998 10.72C73.8438 10.72 72.4278 11.248 71.2518 12.304C70.0998 13.36 69.4398 14.824 69.2718 16.696H81.7278ZM99.7321 28L95.0521 20.656L90.5521 28H87.1321L93.5041 18.208L87.1321 8.272H90.8401L95.5201 15.58L99.9841 8.272H103.404L97.0681 18.028L103.44 28H99.7321Z" fill="#939393"/>
</svg>

<svg xmlns="http://www.w3.org/2000/svg" fill="none" width="104" height="29" viewBox="0 0 104 29"><path d="M13.336 15.076a5.19 5.19 0 0 1 2.484 1.116 6.279 6.279 0 0 1 1.8 2.232c.456.888.684 1.836.684 2.844 0 1.272-.324 2.424-.972 3.456-.648 1.008-1.596 1.812-2.844 2.412-1.224.576-2.676.864-4.356.864H.772V2.908h9c1.704 0 3.156.288 4.356.864 1.2.552 2.1 1.308 2.7 2.268.6.96.9 2.04.9 3.24 0 1.488-.408 2.724-1.224 3.708-.792.96-1.848 1.656-3.168 2.088Zm-9.288-1.332h5.508c1.536 0 2.724-.36 3.564-1.08.84-.72 1.26-1.716 1.26-2.988s-.42-2.268-1.26-2.988c-.84-.72-2.052-1.08-3.636-1.08H4.048v8.136ZM9.844 25.3c1.632 0 2.904-.384 3.816-1.152.912-.768 1.368-1.836 1.368-3.204 0-1.392-.48-2.484-1.44-3.276-.96-.816-2.244-1.224-3.852-1.224H4.048V25.3h5.796Zm16.282-13.824c.576-1.128 1.392-2.004 2.448-2.628 1.08-.624 2.388-.936 3.924-.936v3.384h-.864c-3.672 0-5.508 1.992-5.508 5.976V28H22.85V8.272h3.276v3.204Zm11.846-6.408a2.155 2.155 0 0 1-1.584-.648 2.155 2.155 0 0 1-.648-1.584c0-.624.216-1.152.648-1.584.432-.432.96-.648 1.584-.648.6 0 1.104.216 1.512.648.432.432.648.96.648 1.584 0 .624-.216 1.152-.648 1.584a1.997 1.997 0 0 1-1.512.648Zm1.584 3.204V28H36.28V8.272h3.276Zm9.58 2.7V22.6c0 .96.203 1.644.61 2.052.409.384 1.117.576 2.125.576h2.412V28H51.33c-1.824 0-3.192-.42-4.104-1.26-.912-.84-1.368-2.22-1.368-4.14V10.972h-2.556v-2.7h2.556V3.304h3.276v4.968h5.148v2.7h-5.148Z" fill="#000"/><path d="M61.529 1.36V28h-3.277V1.36h3.276Zm23.583 16.02c0 .624-.036 1.284-.108 1.98H69.236c.12 1.944.78 3.468 1.98 4.572 1.224 1.08 2.7 1.62 4.428 1.62 1.416 0 2.592-.324 3.528-.972a5.302 5.302 0 0 0 2.016-2.664h3.528c-.528 1.896-1.584 3.444-3.168 4.644-1.584 1.176-3.552 1.764-5.904 1.764-1.872 0-3.552-.42-5.04-1.26-1.464-.84-2.616-2.028-3.456-3.564-.84-1.56-1.26-3.36-1.26-5.4 0-2.04.408-3.828 1.224-5.364.816-1.536 1.956-2.712 3.42-3.528 1.488-.84 3.192-1.26 5.112-1.26 1.872 0 3.528.408 4.968 1.224a8.324 8.324 0 0 1 3.312 3.384c.792 1.416 1.188 3.024 1.188 4.824Zm-3.384-.684c0-1.248-.276-2.316-.828-3.204a5.21 5.21 0 0 0-2.268-2.052c-.936-.48-1.98-.72-3.132-.72-1.656 0-3.072.528-4.248 1.584-1.152 1.056-1.812 2.52-1.98 4.392h12.456ZM99.732 28l-4.68-7.344-4.5 7.344h-3.42l6.372-9.792-6.372-9.936h3.708l4.68 7.308 4.464-7.308h3.42l-6.336 9.756L103.44 28h-3.708Z" fill="#939393"/></svg>
